X:47
T:Blacks Fork
C:Matt Flinner
A:The View From Here
N:Transcribed by Mike Stangeland
R:bluegrass
L:1/8
Q:1/4=250
M:4/4
K:A
z6 {d}e2 |: "A"ec ea fg af | ec Ac "E"B2 e2 | "A"ec ea fg af | =c'^c' c'b ab af | 
ec ea fg af | "A"ec Ac "E"B2 AB | (3"A"BcB AG "F#m"F2 FF |1 G"E"A BG "A"A2 e2 :|2 G"E"A BG "A"A2 Bc |] 
|: "A"zB AG "F#m"F2 AF | "A"GA BG "E"E2 E2 | "A"ef ed cB Ac |1 B"E"A GB "A"A2 Bc :|2 B"E"A GB "A"AE AB |] 
"A" "E"[e6B6] [e2B2] | zc BA [e2B2] =c^c | "A"ef ed cB Ac | "E"BA GB "A"AE AB |
 "E"[e6B6] [e2B2] |zc BA [e2B2] e2 | "A"ef ed cB Ac | "E"BA GB "A"A4 || 

